X:1
T:Title
%%score 1 { ( 2 4 6 ) | ( 3 5 7 ) }
L:1/8
M:6/4
K:D
V:1 treble nm="Akkordion"
V:2 treble nm="Grand Piano"
V:4 treble 
V:6 treble 
V:3 bass 
V:5 bass 
V:7 bass 
V:1
 z6 z4[Q:1/4=114] A2 | A2 F2 D2 B,4 A,2 | D2 C2 D2 E4 G2 | G2 E2 C2 B,4 A,2 |[M:5/4] F2- F2- F6 | %5
[M:1/4] A2 |[M:6/4] A2 F2 A2 D4 F2 | E2 B,2 C2 E2 D2 B,2 | A,2 D2 F2 F4 E2 |[M:5/4] D2- D2- D6 | %10
[M:1/4] F2 |[M:6/4] F2 E2 F2 G4 C2 | C2 D2 E2 D4 F2 | B4 F2 D4 E2 |[M:5/4] F2- F2- F6 |[M:1/4] F2 | %16
[M:6/4] G2 C2 D2 E2 B2 A2 |[M:7/4] A4 F2 d6 F2 |[M:6/4] E2 F2 G2 A,2 B,2 C2 | %19
[M:19/16] D/-D/-D/-D/-D/-D/-D/-D/-D/-D/-D/-D/-D-<D z/ z |[M:4/4][Q:1/4=92] z8 | z8 | z8 | z8 | z8 | %25
 z8 | z8 |[M:3/4] z6 |[M:5/16] z5/2 | z5/2 |[M:4/4] z8 | z8 | z8 | z8 | z8 | z8 | z8 |[M:3/4] z6 | %38
[Q:1/4=96] z6 | z6 | z6 | z6 | z6 | z6 | z6 |[M:2/4] z4 |[M:1/4] z2 | z2 |[M:3/4] z6 | z6 | z6 | %51
 z6 | z6 | z6 | z6 |[M:2/4] z4 |[M:4/4] z8 | z8 | z8 | z8 | z8 | z8 | z8 | z8 | z8 | z8 | z8 | z8 | %68
 z8 | z8 | z8 | z8 | z8 | z8 | z8 | z8 | z8 | z8 | %78
[M:9/8] z9[Q:1/4=95][Q:1/4=93][Q:1/4=92][Q:1/4=90][Q:1/4=89][Q:1/4=88][Q:1/4=86][Q:1/4=85][Q:1/4=83][Q:1/4=82][Q:1/4=80] | %79
[M:3/4] z6[Q:1/4=79][Q:1/4=78][Q:1/4=76][Q:1/4=75][Q:1/4=73] | z6 |] %81
V:2
 z6 z4 A2 | A2 F2 D2 B,4 A,2 | D2 C2 D2 [CE]4 [CG]2 | .G6 z6 |[M:5/4] F2- F2- F6 |[M:1/4] A2 | %6
[M:6/4] A2 F2 A2 D4 F2 | [B,E]2 B,2 C2 E2 D2 B,2 | A,2 D2 F2 [A,F]4 E2 | %9
[M:5/4][K:bass] [F,D]2- [F,D]2- [F,D]6 |[M:1/4][K:treble] F2 |[M:6/4] F2 E2 F2 G4 C2 | %12
 C2 D2 E2 D4 F2 | B4 F2 D4 E2 |[M:5/4] F4 F2 F4 |[M:1/4] F2 | %16
[M:6/4] [A,CG]2 C2 D2 A,2- [A,B]2 [GA]2 |[M:7/4] [DFA]4 [A,DF]2 [Fd]6 [DF]2 | %18
[M:6/4] [CE]2 [DF]2 [CG]2 z2 B,2 C2 |[M:19/16] D/-D/-D/-D/-D/-D/-D/-D/-D/-D/-D/-D/-D-<D z/ z | %20
[M:4/4] D<C[K:bass] .B,2 G<[K:treble]G G<G | G,<C .B,2 A<A A<A | A,<G, .E,2 G<[K:treble]G G<G | %23
 E,<B, .A,2 A<[K:treble]A A<A | D<C .B,2 A<A A<A | [GA]<G, .B,2 z/ A3/2 A<A | %26
 F,<B,, .D,2[K:treble] c<c c<c |[M:3/4][K:bass] C,<A,, .E,2[K:treble] d<d |[M:5/16] d/d-<d | %29
 D<CB,/ |[M:4/4] z z/ G/ G>G G>G, C>B, | z z/ A/ A>A A>[K:bass]A, G,>E, | %32
 z z/[K:treble] G/ G>G G>[K:bass]E, B,>A, | z z/[K:treble] A/ A>A A>D C>B, | %34
 z z/ A/ A>A A>[GA] G,>B, | z2 A>A A>[K:bass]F, B,,>D, | %36
 z z/[K:treble] c/ c>c c>[K:bass]C, A,,>E, |[M:3/4] z z/[K:treble] d/ d>d d2 | A2 z2 z c | %39
 [Ge]d z2 A,2 | [A,DF]2 [CE]3 [DF] | GA [Ac]4 | z2 [FA]4 | [Ec][Fd] e2 c2 | [FA]G F4- | %45
[M:2/4] F4- |[M:1/4] F2 | A2 |[M:3/4] [A,FA]2 BA [=F^G]A | [Fd]4 [FA]2 | B2 cB ^AB | [Ge]4 [GB]2 | %52
 .[Gc]2 [Ac]d [ce][df] | [cg]4 .[Ac]2 | [Fd]6- |[M:2/4] [Fd]4 | %56
[M:4/4] [DFA]2 [Fd]2- [Fd][Fd] [Fd]2 | [DF][EG][GB][FA] [DF][Fd] [Ec]2 | %58
 [Fd]2 [Ge]2- [Ge][Fd][Ec][GB] | [FA][EG] [DF]6 | [FA]2 [FA]2 [Ad]2 [Fc]2- | %61
 [Fc][CGA] [CG]2 [Ge]2 [Fd]2- | [Fd][FA] [Af]2 [Fd]2 dB | cd e4- eA | z2 d6 | z2 [GB]6 | z2 e6 | %67
 [EAc][EBd] [EAc]6 | AG F2 A2 B2 | A2 A2- AG G2 | GF E2 G2 c2 | B2 B2- BA .A2 | %72
 z2 z [CE] [CE][CE][CE]e | z2 d6 | [FA]2 [Fd]2- [Fd][FA][GB][FA] | [EG]F [CE]6 | %76
 [CE]2 [DF]2 [FA]2 [Fd]2- | [Fd][Af]ed cB [DFA]2 |[M:9/8] DEF- F B2 A2 [Gce]- | %79
[M:3/4] [Gce]2 [Fd]4- | [Fd]2 z2 z2 |] %81
V:3
 z12 | [D,F,A,]4 [D,F,A,]2 [D,G,]4 [D,F,]2 | [D,F,]2 [E,G,]2 [D,F,]2 [A,,E,A,]4 [A,,E,]2 | %3
 E,2 A,2 [A,,G,A,]2 [A,,G,A,]4 A,,2 |[M:5/4] [D,A,D]2- [D,A,D]2- [D,A,D]6 |[M:1/4] [D,F,D]2 | %6
[M:6/4] [D,D]2- [D,A,D]2 [D,F,D]2 [D,F,A,]4 [D,A,D]2 | .G,6 .G,6 | %8
 A,,2- [A,,-A,]2 [A,,A,]2 z4 G,2 |[M:5/4] D,2 A,,2 F,,2 D,,4 |[M:1/4] [D,A,D]2 | %11
[M:6/4] [D,A,D]2 [G,A,C]2 [F,A,D]2 [E,A,C]4 [A,,E,A,]2 | %12
 [A,,A,]2- [A,,-F,A,]2 [A,,G,A,]2 [D,F,A,]4 F,2 | B,4 F,2 D,4 [G,B,]2 | %14
[M:5/4] [F,^A,C]4 [F,B,D]2 [F,A,C]4 |[M:1/4] z2 |[M:6/4] z2 A,2 B,2 z2[K:treble] G2 C2 | %17
[M:7/4][K:bass] D,4 D,2 [D,A,]6 [D,A,]2 |[M:6/4] [A,,A,]4 [A,,E,]2 C,2 D,2 E,2 | %19
[M:19/16] [D,F,A,]/-[D,F,A,]/-[D,F,A,]/-[D,F,A,]/-[D,F,A,]/-[D,F,A,]/-[D,F,A,]/-[D,F,A,]/-[D,F,A,]/-[D,F,A,]/-[D,F,A,]/-[D,F,A,]/-[D,F,A,]-<[D,F,A,] z/ z | %20
[M:4/4] z4[K:treble] [A,C]<[A,C] [A,C]<[A,C] | z4 [DF]<[DF] [DF]<[DF] | %22
 z4 [A,E]<[A,E] [A,E]<[A,E] | z4 [A,D]<[A,D] [A,D]<[A,D] | z4 [EG]<[EG] [EG]<[EG] | %25
 .[E,E]2 z2 z/[K:treble] [DF]3/2 [DF]<[DF] | z4 [A,E]<[A,E] [A,E]<[A,E] | %27
[M:3/4] z2 z2 [A,F]<[B,G] |[M:5/16] [B,G]/[A,F]-<[A,F] | z5/2 | %30
[M:4/4] z z/ [A,C]/ [A,C]>[A,C] [A,C]2 z2 | z z/ [DF]/ [DF]>[DF] [DF]2 z2 | %32
 z z/ [A,E]/ [A,E]>[A,E] [A,E]2 z2 | z z/ [A,D]/ [A,D]>[A,D] [A,D]2 z2 | %34
 z z/ [EG]/ [EG]>[EG] [EG]>[K:bass][E,E] z2 | z2[K:treble] [DF]>[DF] [DF]2 z2 | %36
 z z/ [A,E]/ [A,E]>[A,E] [A,E]2 z2 |[M:3/4] z z/ [A,F]/ [B,G]>[B,G] [A,F]2 | F2[K:bass] D,2 z E | %39
 z F D,2 F,2 | F,2 A,,C, E,A, | EF[K:bass] A,,C, E,A, | G2 [D,F,A,]2 [D,F,]G | z2 A,2 z2 | %44
 A,2 z2 z D- |[M:2/4] D4- |[M:1/4] D2 | F2 |[M:3/4] D,2 GF z F | D,D A,F, D,2 | G4 [G,DG]2 | %51
 G,B, EB, G,E, | z[K:treble] B z B[K:bass] A,,2 | [A,,E,]4 z G | D,2 A,,2 F,,2 |[M:2/4] D,,4 | %56
[M:4/4] D,2 [D,A,]2- [D,A,][D,A,] [D,A,]2 | [D,A,]2 [D,D]2 [D,A,]2 [A,,A,]2 | %58
 [D,A,]2 [A,,A,]2- [A,,A,][A,,A,] [A,,A,]2 | [A,,A,]2 [D,A,]6 | [D,D]2 [D,D]2 [F,A,]2 [E,A,]2- | %61
 [E,A,]A,, A,,2 [C,A,]2 [D,A,]2- | [D,A,][D,D] [D,D]2 [D,A,]2 [E,^G,E]2 | %63
 [E,E]-[E,B,E][K:treble] [A,CG]4- [A,CG]G | z2 F6[K:bass] | [D,A,]2 z2 z4[K:treble] | %66
 z2 ^G6[K:bass] | E,E, A,6 | FE D2 F2 G2 | F2 F2- FE E2 | ED C2 E2 A2 | G2 G2- GFFd | %72
 z2 G6[K:bass] | z2 z [D,A,] [D,A,][D,A,] [D,A,]2 | [D,D]2 [D,A,]2- [D,A,][D,D] [D,D]2 | %75
 A,2 z2 z4 | [A,,A,]2 [D,A,]2 [D,D]2 [D,A,]2- | [D,A,][D,D][K:treble] [G,DG]2 [G,DG]2[K:bass] D,2 | %78
[M:9/8] D,E,F,- F, B,2 A,2 [A,,A,]- |[M:3/4] [A,,A,]2 [D,A,]4- | [D,A,]2 z2 z2 |] %81
V:4
 x12 | x12 | x12 | C2- [CE]2 C2 B,4 A,2 |[M:5/4] x10 |[M:1/4] x2 |[M:6/4] x12 | x12 | x12 | %9
[M:5/4][K:bass] x10 |[M:1/4][K:treble] x2 |[M:6/4] x12 | x12 | x12 |[M:5/4] x10 |[M:1/4] x2 | %16
[M:6/4] z6 .[CE]6 |[M:7/4] x14 |[M:6/4] z6 A,6 |[M:19/16] x19/2 | %20
[M:4/4] z2[K:bass] z/ E,3/2- E,4[K:treble] | z2 z/ A,3/2- A,4 | z2 z/ C,3/2- C,4[K:treble] | %23
 z2 z/ F,3/2- F,4[K:treble] | z2 z/ C3/2- C4 | z2 z/ A,3/2- A,4 | z2 z/[K:treble] G,3/2- G,4 | %27
[M:3/4][K:bass] z2 z/[K:treble] D,3/2- D,2- |[M:5/16] D,/-D,-<D, | x5/2 |[M:4/4] E,6 z2 | %31
 A,6[K:bass] z2 | C,6[K:treble][K:bass] z2 | F,6[K:treble] z2 | C6 z2 | A,6[K:bass] z2 | %36
 G,6[K:treble][K:bass] z2 |[M:3/4] D,6[K:treble] | z2 [Fd]4 | z2 [FA]4 | x6 | x6 | B2 z2 A,B | %43
 z2 G4 | z2 D4 |[M:2/4] x4 |[M:1/4] x2 | x2 |[M:3/4] x6 | x6 | x6 | x6 | x6 | x6 | x6 |[M:2/4] x4 | %56
[M:4/4] x8 | x8 | x8 | x8 | x8 | x8 | x8 | x8 | AA z A, A,A, z F | [EG]A D2 D2 DB | %66
 BB z B, B,B,B,[B,^GB] | x8 | x8 | x8 | x8 | x8 | x8 | Bc z F FF F2 | x8 | x8 | x8 | x8 | %78
[M:9/8] x9 |[M:3/4] x6 | x6 |] %81
V:5
 x12 | x12 | x12 | .A,,6 z6 |[M:5/4] x10 |[M:1/4] x2 |[M:6/4] .F,6 z6 | %7
 G,,2- [G,,D,G,]2 [G,,D,G,]2 [G,,D,]2 [G,,D,]2 [G,,D,G,]2 | .F,6 A,,6 |[M:5/4] x10 |[M:1/4] x2 | %11
[M:6/4] x12 | .E,6 z6 | x12 |[M:5/4] x10 |[M:1/4] x2 |[M:6/4] .A,,6 A,,6[K:treble] | %17
[M:7/4][K:bass] x14 |[M:6/4] z6 A,,6 |[M:19/16] x19/2 |[M:4/4] x4[K:treble] x4 | x8 | x8 | x8 | %24
 x8 | x9/2[K:treble] x7/2 | x8 |[M:3/4] x6 |[M:5/16] x5/2 | x5/2 |[M:4/4] x8 | x8 | x8 | x8 | %34
 x11/2[K:bass] x5/2 | x2[K:treble] x6 | x8 |[M:3/4] x6 | z2[K:bass] z2 F,2 | [F,A,]2 z2 z2 | x6 | %41
 x2[K:bass] x4 | x6 | [A,,A,]2 A,,2- [A,,E,]2 | z E D,F, .A,2 |[M:2/4] A,F, D,2- |[M:1/4] D,2 | %47
 x2 |[M:3/4] z2 z2 [D,A,]2 | x6 | [G,D]2 z2 z2 | x6 | A,6[K:treble][K:bass] | z2 z2 [A,,A,]2 | x6 | %55
[M:2/4] x4 |[M:4/4] x8 | x8 | x8 | x8 | x8 | x8 | x8 | .A,2[K:treble] z2 z4 | %64
 GG z[K:bass] D, D,D, z D | z F G,,2 G,,2 G,,[K:treble]G | GG z[K:bass] E, E,E,E,E, | x8 | x8 | %69
 x8 | x8 | x8 | AF z[K:bass] A,, A,,A,, .A,,2 | x8 | x8 | C,[D,D] [A,,A,]6 | x8 | %77
 x2[K:treble] x4[K:bass] x2 |[M:9/8] x9 |[M:3/4] x6 | x6 |] %81
V:6
 x12 | x12 | x12 | x12 |[M:5/4] x10 |[M:1/4] x2 |[M:6/4] x12 | x12 | x12 |[M:5/4][K:bass] x10 | %10
[M:1/4][K:treble] x2 |[M:6/4] x12 | x12 | x12 |[M:5/4] x10 |[M:1/4] x2 |[M:6/4] x12 |[M:7/4] x14 | %18
[M:6/4] x12 |[M:19/16] x19/2 |[M:4/4] x2[K:bass] x5/2[K:treble] x7/2 | x8 | x9/2[K:treble] x7/2 | %23
 x9/2[K:treble] x7/2 | x8 | x8 | x5/2[K:treble] x11/2 |[M:3/4][K:bass] x5/2[K:treble] x7/2 | %28
[M:5/16] x5/2 | x5/2 |[M:4/4] x8 | x11/2[K:bass] x5/2 | x3/2[K:treble] x4[K:bass] x5/2 | %33
 x3/2[K:treble] x13/2 | x8 | x11/2[K:bass] x5/2 | x3/2[K:treble] x4[K:bass] x5/2 | %37
[M:3/4] x3/2[K:treble] x9/2 | z2 z2 A,2 | x6 | x6 | x6 | x6 | x6 | x6 |[M:2/4] x4 |[M:1/4] x2 | %47
 x2 |[M:3/4] x6 | x6 | x6 | x6 | x6 | x6 | x6 |[M:2/4] x4 |[M:4/4] x8 | x8 | x8 | x8 | x8 | x8 | %62
 x8 | x8 | z4 z2 A,2 | x8 | x8 | x8 | x8 | x8 | x8 | x8 | x8 | x8 | x8 | x8 | x8 | x8 |[M:9/8] x9 | %79
[M:3/4] x6 | x6 |] %81
V:7
 x12 | x12 | x12 | x12 |[M:5/4] x10 |[M:1/4] x2 |[M:6/4] x12 | x12 | x12 |[M:5/4] x10 |[M:1/4] x2 | %11
[M:6/4] x12 | x12 | x12 |[M:5/4] x10 |[M:1/4] x2 |[M:6/4] x8[K:treble] x4 |[M:7/4][K:bass] x14 | %18
[M:6/4] x12 |[M:19/16] x19/2 |[M:4/4] x4[K:treble] x4 | x8 | x8 | x8 | x8 | x9/2[K:treble] x7/2 | %26
 x8 |[M:3/4] x6 |[M:5/16] x5/2 | x5/2 |[M:4/4] x8 | x8 | x8 | x8 | x11/2[K:bass] x5/2 | %35
 x2[K:treble] x6 | x8 |[M:3/4] x6 | x2[K:bass] x4 | x6 | x6 | x2[K:bass] x4 | x6 | x6 | x6 | %45
[M:2/4] x4 |[M:1/4] x2 | x2 |[M:3/4] x6 | x6 | x6 | x6 | z2[K:treble] A,,2[K:bass] z2 | x6 | x6 | %55
[M:2/4] x4 |[M:4/4] x8 | x8 | x8 | x8 | x8 | x8 | x8 | x2[K:treble] x6 | z4[K:bass] z2 D,2 | %65
 x7[K:treble] x | x3[K:bass] x5 | x8 | x8 | x8 | x8 | x8 | x3[K:bass] x5 | x8 | x8 | x8 | x8 | %77
 x2[K:treble] x4[K:bass] x2 |[M:9/8] x9 |[M:3/4] x6 | x6 |] %81

